X:4098
T:Mazurka de Servant
T:Mazurka à Jabut
O:england
M:3/4
L:1/8
K:G
d ed|G2 Gd ed|A2 AA Bc|de dc BA|B2 Gd ed|\
G2 Gd ed|A2 AA Bc|de dc BA|G3:|
|:B cd|e2 ed cB|A2 AA Bc|de dc BA|B2 GB cd|\
e2 ed cB|A2 AA Bc|de dc BA|G3:|


